icons/ly.svg

<?xml version="1.0" ?>
<svg xmlns="http://www.w3.org/2000/svg" xmlns:ev="http://www.w3.org/2001/xml-events" xmlns:xlink="http://www.w3.org/1999/xlink" baseProfile="full" height="526px" version="1.1" viewBox="-1028.8272397526935 -261.76556960149196 12294.741442218754 10770.001400404335" width="600px">
	<defs/>
	<path d="M 1595.0,9605.0 C 1590.0,9603.0 1568.0,9599.0 1546.0,9595.0 C 1494.0,9586.0 1460.0,9551.0 1460.0,9505.0 C 1460.0,9486.0 1451.0,9443.0 1439.0,9409.0 C 1415.0,9340.0 1419.0,9293.0 1451.0,9264.0 C 1505.0,9215.0 1496.0,9162.0 1429.0,9140.0 C 1408.0,9133.0 1373.0,9113.0 1352.0,9095.0 C 1332.0,9078.0 1266.0,9040.0 1207.0,9012.0 C 1127.0,8973.0 1086.0,8945.0 1045.0,8905.0 C 1015.0,8875.0 983.0,8850.0 973.0,8850.0 C 945.0,8849.0 914.0,8818.0 888.0,8765.0 C 867.0,8722.0 859.0,8715.0 804.0,8695.0 C 693.0,8654.0 664.0,8634.0 646.0,8590.0 C 617.0,8517.0 625.0,8436.0 671.0,8326.0 L 712.0,8228.0 L 700.0,8141.0 C 690.0,8066.0 685.0,8051.0 656.0,8020.0 C 638.0,8001.0 609.0,7963.0 592.0,7935.0 C 543.0,7856.0 503.0,7823.0 445.0,7815.0 C 418.0,7811.0 346.0,7791.0 286.0,7769.0 C 195.0,7738.0 169.0,7723.0 133.0,7688.0 L 91.0,7645.0 L 125.0,7550.0 C 143.0,7498.0 177.0,7415.0 200.0,7365.0 C 250.0,7259.0 341.0,6997.0 365.0,6890.0 C 382.0,6817.0 381.0,6808.0 356.0,6542.0 L 330.0,6270.0 L 356.0,6189.0 C 370.0,6145.0 385.0,6084.0 390.0,6053.0 C 398.0,6004.0 397.0,5992.0 380.0,5965.0 C 369.0,5947.0 360.0,5915.0 360.0,5892.0 C 360.0,5858.0 355.0,5847.0 328.0,5827.0 C 301.0,5806.0 296.0,5794.0 292.0,5747.0 C 286.0,5677.0 324.0,5496.0 352.0,5456.0 C 372.0,5429.0 372.0,5423.0 361.0,5346.0 C 342.0,5223.0 342.0,5223.0 268.0,5165.0 C 205.0,5116.0 193.0,5110.0 150.0,5110.0 L 102.0,5110.0 L 51.0,5030.0 C 23.0,4985.0 0.0,4948.0 0.0,4945.0 C 0.0,4943.0 90.0,4809.0 200.0,4648.0 L 400.0,4355.0 L 400.0,4275.0 C 401.0,4164.0 412.0,4118.0 448.0,4074.0 C 474.0,4043.0 480.0,4026.0 480.0,3988.0 L 480.0,3940.0 L 551.0,3904.0 L 623.0,3868.0 L 684.0,3894.0 C 757.0,3925.0 756.0,3925.0 763.0,3901.0 C 768.0,3879.0 853.0,3866.0 884.0,3882.0 C 897.0,3889.0 919.0,3889.0 954.0,3881.0 C 1001.0,3870.0 1008.0,3865.0 1038.0,3815.0 C 1056.0,3786.0 1078.0,3759.0 1088.0,3756.0 C 1097.0,3754.0 1180.0,3739.0 1272.0,3724.0 C 1435.0,3698.0 1439.0,3696.0 1449.0,3670.0 C 1457.0,3646.0 1452.0,3633.0 1419.0,3577.0 L 1379.0,3511.0 L 1516.0,3338.0 C 1591.0,3243.0 1658.0,3160.0 1664.0,3153.0 C 1670.0,3147.0 1907.0,3089.0 2190.0,3026.0 C 2473.0,2962.0 2714.0,2906.0 2725.0,2901.0 C 2736.0,2896.0 2833.0,2828.0 2940.0,2748.0 C 3047.0,2669.0 3141.0,2600.0 3148.0,2596.0 C 3156.0,2591.0 3382.0,2695.0 3735.0,2865.0 L 4309.0,3142.0 L 6934.0,1891.0 C 8378.0,1203.0 9564.0,640.0 9570.0,640.0 C 9576.0,640.0 9578.0,650.0 9576.0,663.0 C 9573.0,675.0 9569.0,727.0 9565.0,778.0 C 9561.0,849.0 9562.0,870.0 9572.0,870.0 C 9779.0,874.0 10234.0,891.0 10237.0,894.0 C 10240.0,897.0 10165.0,2325.0 10071.0,4069.0 L 9901.0,7240.0 L 9820.0,7343.0 L 9740.0,7445.0 L 9745.0,7505.0 C 9748.0,7538.0 9751.0,7576.0 9752.0,7590.0 C 9753.0,7604.0 9733.0,7668.0 9707.0,7732.0 C 9662.0,7847.0 9661.0,7849.0 9671.0,7916.0 C 9679.0,7975.0 9691.0,8000.0 9756.0,8107.0 L 9831.0,8230.0 L 9785.0,8304.0 C 9742.0,8374.0 9737.0,8389.0 9709.0,8539.0 L 9679.0,8698.0 L 9763.0,8780.0 C 9810.0,8824.0 9850.0,8869.0 9853.0,8880.0 C 9858.0,8899.0 9824.0,8938.0 9783.0,8959.0 C 9769.0,8966.0 9760.0,8981.0 9758.0,9003.0 C 9755.0,9034.0 9753.0,9035.0 9700.0,9041.0 C 9670.0,9044.0 9625.0,9054.0 9601.0,9064.0 C 9561.0,9079.0 9551.0,9079.0 9500.0,9066.0 C 9468.0,9058.0 9392.0,9050.0 9330.0,9049.0 C 9235.0,9048.0 9216.0,9050.0 9208.0,9064.0 C 9203.0,9073.0 9191.0,9080.0 9181.0,9080.0 C 9171.0,9080.0 9130.0,9092.0 9089.0,9107.0 C 9024.0,9131.0 8995.0,9134.0 8852.0,9139.0 C 8712.0,9144.0 8687.0,9148.0 8676.0,9163.0 C 8669.0,9172.0 8650.0,9180.0 8634.0,9180.0 C 8594.0,9180.0 8584.0,9189.0 8572.0,9233.0 C 8561.0,9271.0 8562.0,9272.0 8586.0,9266.0 C 8605.0,9261.0 8610.0,9263.0 8610.0,9279.0 C 8610.0,9289.0 8603.0,9303.0 8595.0,9310.0 C 8587.0,9317.0 8580.0,9338.0 8580.0,9356.0 C 8580.0,9396.0 8568.0,9402.0 8468.0,9420.0 C 8395.0,9433.0 8192.0,9497.0 8171.0,9514.0 C 8163.0,9520.0 8121.0,9525.0 8077.0,9526.0 C 8006.0,9527.0 7996.0,9529.0 7980.0,9550.0 C 7965.0,9570.0 7959.0,9571.0 7929.0,9562.0 C 7910.0,9556.0 7839.0,9549.0 7771.0,9546.0 L 7646.0,9540.0 L 7599.0,9500.0 C 7540.0,9450.0 7513.0,9439.0 7425.0,9430.0 C 7387.0,9426.0 7332.0,9416.0 7305.0,9408.0 C 7226.0,9386.0 7052.0,9287.0 6977.0,9222.0 C 6940.0,9190.0 6892.0,9155.0 6871.0,9145.0 C 6842.0,9132.0 6819.0,9109.0 6784.0,9056.0 C 6758.0,9017.0 6723.0,8967.0 6705.0,8945.0 C 6650.0,8877.0 6627.0,8821.0 6622.0,8745.0 C 6618.0,8679.0 6620.0,8669.0 6654.0,8602.0 C 6674.0,8563.0 6690.0,8520.0 6690.0,8507.0 C 6690.0,8492.0 6706.0,8469.0 6735.0,8443.0 L 6780.0,8403.0 L 6780.0,8330.0 C 6780.0,8226.0 6748.0,8144.0 6659.0,8023.0 C 6571.0,7902.0 6497.0,7825.0 6445.0,7798.0 C 6423.0,7786.0 6355.0,7760.0 6295.0,7740.0 C 6209.0,7711.0 6179.0,7705.0 6160.0,7712.0 C 6146.0,7717.0 6107.0,7726.0 6072.0,7731.0 C 6031.0,7737.0 5997.0,7749.0 5977.0,7764.0 C 5959.0,7778.0 5932.0,7792.0 5915.0,7796.0 C 5899.0,7800.0 5863.0,7822.0 5835.0,7845.0 C 5808.0,7868.0 5763.0,7902.0 5735.0,7920.0 C 5708.0,7938.0 5667.0,7969.0 5645.0,7988.0 C 5586.0,8038.0 5492.0,8090.0 5459.0,8090.0 C 5431.0,8090.0 5390.0,8120.0 5390.0,8140.0 C 5390.0,8146.0 5376.0,8150.0 5359.0,8150.0 C 5314.0,8150.0 5214.0,8178.0 5159.0,8206.0 C 5132.0,8219.0 5097.0,8230.0 5079.0,8230.0 C 5034.0,8230.0 4930.0,8258.0 4894.0,8281.0 C 4856.0,8304.0 4772.0,8316.0 4530.0,8335.0 C 4428.0,8343.0 4322.0,8354.0 4293.0,8360.0 C 4238.0,8372.0 4111.0,8434.0 4008.0,8499.0 L 3945.0,8539.0 L 3890.0,8676.0 C 3839.0,8806.0 3836.0,8821.0 3830.0,8925.0 C 3823.0,9067.0 3811.0,9092.0 3740.0,9108.0 C 3712.0,9115.0 3665.0,9120.0 3637.0,9120.0 C 3578.0,9120.0 3484.0,9135.0 3419.0,9156.0 C 3393.0,9164.0 3359.0,9170.0 3344.0,9170.0 C 3313.0,9170.0 3208.0,9245.0 3170.0,9292.0 C 3155.0,9312.0 3137.0,9319.0 3093.0,9325.0 C 3061.0,9329.0 3020.0,9338.0 3000.0,9346.0 C 2953.0,9364.0 2857.0,9380.0 2797.0,9380.0 C 2759.0,9380.0 2735.0,9388.0 2689.0,9415.0 C 2613.0,9459.0 2581.0,9460.0 2425.0,9417.0 C 2318.0,9388.0 2292.0,9385.0 2183.0,9387.0 L 2061.0,9388.0 L 1853.0,9494.0 C 1650.0,9597.0 1616.0,9612.0 1595.0,9605.0" fill="pink"/>
</svg>

<?xml version="1.0" standalone="no"?>
<!DOCTYPE svg PUBLIC "-//W3C//DTD SVG 20010904//EN"
 "http://www.w3.org/TR/2001/REC-SVG-20010904/DTD/svg10.dtd">
<svg version="1.0" xmlns="http://www.w3.org/2000/svg"
 width="1024.000000pt" height="1024.000000pt" viewBox="0 0 1024.000000 1024.000000"
 preserveAspectRatio="xMidYMid meet">
<metadata>
Created by potrace 1.10, written by Peter Selinger 2001-2011
</metadata>
<g transform="translate(0.000000,1024.000000) scale(0.100000,-0.100000)"
fill="#000000" stroke="none">
<path d="M1595 9605 c-5 -2 -27 -6 -49 -10 -52 -9 -86 -44 -86 -90 0 -19 -9
-62 -21 -96 -24 -69 -20 -116 12 -145 54 -49 45 -102 -22 -124 -21 -7 -56 -27
-77 -45 -20 -17 -86 -55 -145 -83 -80 -39 -121 -67 -162 -107 -30 -30 -62 -55
-72 -55 -28 -1 -59 -32 -85 -85 -21 -43 -29 -50 -84 -70 -111 -41 -140 -61
-158 -105 -29 -73 -21 -154 25 -264 l41 -98 -12 -87 c-10 -75 -15 -90 -44
-121 -18 -19 -47 -57 -64 -85 -49 -79 -89 -112 -147 -120 -27 -4 -99 -24 -159
-46 -91 -31 -117 -46 -153 -81 l-42 -43 34 -95 c18 -52 52 -135 75 -185 50
-106 141 -368 165 -475 17 -73 16 -82 -9 -348 l-26 -272 26 -81 c14 -44 29
-105 34 -136 8 -49 7 -61 -10 -88 -11 -18 -20 -50 -20 -73 0 -34 -5 -45 -32
-65 -27 -21 -32 -33 -36 -80 -6 -70 32 -251 60 -291 20 -27 20 -33 9 -110 -19
-123 -19 -123 -93 -181 -63 -49 -75 -55 -118 -55 l-48 0 -51 -80 c-28 -45 -51
-82 -51 -85 0 -2 90 -136 200 -297 l200 -293 0 -80 c1 -111 12 -157 48 -201
26 -31 32 -48 32 -86 l0 -48 71 -36 72 -36 61 26 c73 31 72 31 79 7 5 -22 90
-35 121 -19 13 7 35 7 70 -1 47 -11 54 -16 84 -66 18 -29 40 -56 50 -59 9 -2
92 -17 184 -32 163 -26 167 -28 177 -54 8 -24 3 -37 -30 -93 l-40 -66 137
-173 c75 -95 142 -178 148 -185 6 -6 243 -64 526 -127 283 -64 524 -120 535
-125 11 -5 108 -73 215 -153 107 -79 201 -148 208 -152 8 -5 234 99 587 269
l574 277 2625 -1251 c1444 -688 2630 -1251 2636 -1251 6 0 8 10 6 23 -3 12 -7
64 -11 115 -4 71 -3 92 7 92 207 4 662 21 665 24 3 3 -72 1431 -166 3175
l-170 3171 -81 103 -80 102 5 60 c3 33 6 71 7 85 1 14 -19 78 -45 142 -45 115
-46 117 -36 184 8 59 20 84 85 191 l75 123 -46 74 c-43 70 -48 85 -76 235
l-30 159 84 82 c47 44 87 89 90 100 5 19 -29 58 -70 79 -14 7 -23 22 -25 44
-3 31 -5 32 -58 38 -30 3 -75 13 -99 23 -40 15 -50 15 -101 2 -32 -8 -108 -16
-170 -17 -95 -1 -114 1 -122 15 -5 9 -17 16 -27 16 -10 0 -51 12 -92 27 -65
24 -94 27 -237 32 -140 5 -165 9 -176 24 -7 9 -26 17 -42 17 -40 0 -50 9 -62
53 -11 38 -10 39 14 33 19 -5 24 -3 24 13 0 10 -7 24 -15 31 -8 7 -15 28 -15
46 0 40 -12 46 -112 64 -73 13 -276 77 -297 94 -8 6 -50 11 -94 12 -71 1 -81
3 -97 24 -15 20 -21 21 -51 12 -19 -6 -90 -13 -158 -16 l-125 -6 -47 -40 c-59
-50 -86 -61 -174 -70 -38 -4 -93 -14 -120 -22 -79 -22 -253 -121 -328 -186
-37 -32 -85 -67 -106 -77 -29 -13 -52 -36 -87 -89 -26 -39 -61 -89 -79 -111
-55 -68 -78 -124 -83 -200 -4 -66 -2 -76 32 -143 20 -39 36 -82 36 -95 0 -15
16 -38 45 -64 l45 -40 0 -73 c0 -104 -32 -186 -121 -307 -88 -121 -162 -198
-214 -225 -22 -12 -90 -38 -150 -58 -86 -29 -116 -35 -135 -28 -14 5 -53 14
-88 19 -41 6 -75 18 -95 33 -18 14 -45 28 -62 32 -16 4 -52 26 -80 49 -27 23
-72 57 -100 75 -27 18 -68 49 -90 68 -59 50 -153 102 -186 102 -28 0 -69 30
-69 50 0 6 -14 10 -31 10 -45 0 -145 28 -200 56 -27 13 -62 24 -80 24 -45 0
-149 28 -185 51 -38 23 -122 35 -364 54 -102 8 -208 19 -237 25 -55 12 -182
74 -285 139 l-63 40 -55 137 c-51 130 -54 145 -60 249 -7 142 -19 167 -90 183
-28 7 -75 12 -103 12 -59 0 -153 15 -218 36 -26 8 -60 14 -75 14 -31 0 -136
75 -174 122 -15 20 -33 27 -77 33 -32 4 -73 13 -93 21 -47 18 -143 34 -203 34
-38 0 -62 8 -108 35 -76 44 -108 45 -264 2 -107 -29 -133 -32 -242 -30 l-122
1 -208 106 c-203 103 -237 118 -258 111z"/>
</g>
</svg>
